client/public/background.svg

<svg xmlns="http://www.w3.org/2000/svg" version="1.1" xmlns:xlink="http://www.w3.org/1999/xlink" xmlns:svgjs="http://svgjs.dev/svgjs" width="1440" height="250" preserveAspectRatio="none" viewBox="0 0 1440 250"><g mask="url(&quot;#SvgjsMask1015&quot;)" fill="none"><rect width="1440" height="250" x="0" y="0" fill="rgba(29, 78, 216, 1)"></rect><path d="M24 250L274 0L416.5 0L166.5 250z" fill="url(&quot;#SvgjsLinearGradient1016&quot;)"></path><path d="M271.6 250L521.6 0L848.6 0L598.6 250z" fill="url(&quot;#SvgjsLinearGradient1016&quot;)"></path><path d="M490.20000000000005 250L740.2 0L1089.7 0L839.7 250z" fill="url(&quot;#SvgjsLinearGradient1016&quot;)"></path><path d="M719.8000000000001 250L969.8000000000001 0L1326.8000000000002 0L1076.8000000000002 250z" fill="url(&quot;#SvgjsLinearGradient1016&quot;)"></path><path d="M1432 250L1182 0L1111.5 0L1361.5 250z" fill="url(&quot;#SvgjsLinearGradient1017&quot;)"></path><path d="M1194.4 250L944.4000000000001 0L771.9000000000001 0L1021.9000000000001 250z" fill="url(&quot;#SvgjsLinearGradient1017&quot;)"></path><path d="M916.8 250L666.8 0L543.8 0L793.8 250z" fill="url(&quot;#SvgjsLinearGradient1017&quot;)"></path><path d="M701.1999999999999 250L451.19999999999993 0L169.19999999999993 0L419.19999999999993 250z" fill="url(&quot;#SvgjsLinearGradient1017&quot;)"></path><path d="M1312.8880392069893 250L1440 122.8880392069894L1440 250z" fill="url(&quot;#SvgjsLinearGradient1016&quot;)"></path><path d="M0 250L127.1119607930106 250L 0 122.8880392069894z" fill="url(&quot;#SvgjsLinearGradient1017&quot;)"></path></g><defs><mask id="SvgjsMask1015"><rect width="1440" height="250" fill="#ffffff"></rect></mask><linearGradient x1="0%" y1="100%" x2="100%" y2="0%" id="SvgjsLinearGradient1016"><stop stop-color="rgba(37, 99, 235, 1)" offset="0"></stop><stop stop-opacity="0" stop-color="rgba(37, 99, 235, 1)" offset="0.66"></stop></linearGradient><linearGradient x1="100%" y1="100%" x2="0%" y2="0%" id="SvgjsLinearGradient1017"><stop stop-color="rgba(37, 99, 235, 1)" offset="0"></stop><stop stop-opacity="0" stop-color="rgba(37, 99, 235, 1)" offset="0.66"></stop></linearGradient></defs></svg>

<svg xmlns="http://www.w3.org/2000/svg" width="1440" height="250" preserveAspectRatio="none"><g mask="url(&quot;#a&quot;)" fill="none"><path fill="rgba(29, 78, 216, 1)" d="M0 0h1440v250H0z"/><path d="M24 250 274 0h142.5l-250 250zM271.6 250l250-250h327l-250 250z" fill="url(&quot;#b&quot;)"/><path d="m490.2 250 250-250h349.5l-250 250z" fill="url(&quot;#b&quot;)"/><path d="m719.8 250 250-250h357l-250 250z" fill="url(&quot;#b&quot;)"/><path d="M1432 250 1182 0h-70.5l250 250zM1194.4 250 944.4 0H771.9l250 250zM916.8 250 666.8 0h-123l250 250zM701.2 250 451.2 0h-282l250 250z" fill="url(&quot;#c&quot;)"/><path d="M1312.888 250 1440 122.888V250z" fill="url(&quot;#b&quot;)"/><path d="M0 250h127.112L0 122.888z" fill="url(&quot;#c&quot;)"/></g><defs><linearGradient x1="0%" y1="100%" x2="100%" y2="0%" id="b"><stop stop-color="rgba(37, 99, 235, 1)" offset="0"/><stop stop-opacity="0" stop-color="rgba(37, 99, 235, 1)" offset=".66"/></linearGradient><linearGradient x1="100%" y1="100%" x2="0%" y2="0%" id="c"><stop stop-color="rgba(37, 99, 235, 1)" offset="0"/><stop stop-opacity="0" stop-color="rgba(37, 99, 235, 1)" offset=".66"/></linearGradient><mask id="a"><path fill="#fff" d="M0 0h1440v250H0z"/></mask></defs></svg>
